X:1
T:Die Ehre Gottes aus der Natur
T:Die Ehre Gottes aus der Natur
T:L. van Beethoven (1770 - 1827)
T:C.F.Gellert (1715 - 1769)
T:für gemischten Chor bearbeitet von Viktor Janitzek
T:für gemischten Chor bearbeitet von Viktor Janitzek
C:L. van Beethoven
Z:für gemischten Chor bearbeitet von Viktor Janitzek
%%score [ ( 1 2 3 ) ( 4 5 ) ]
L:1/8
Q:1/4=76
M:4/4
K:Bb
V:1 treble nm="S\nA"
V:2 treble 
V:3 treble 
V:4 bass nm="T\nB"
V:5 bass 
V:1
"^Majestätisch und erhaben"!f!"^\n" F2 | B4 F4 | D4 B,2 d2 | d4 c2 B2 | %4
w: 1.Die|Him- mel|rüh- men des|E- wi- gen|
w: 2.Ver-|nimm's und|sie- he die|Wun- der der|
 !fermata!B4 !fermata!A2!f! F2 | e4 c4 | A4 F4 | B4 (c3 A) | !fermata!B6!p! D2 | D6 D2 | D4 D2 D2 | %11
w: Eh- re, ihr|Schall pflanzt|sei- nen|Na- men *|fort. Ihn|rühmt der|Erd- kreis, ihn|
w: Wer- ke, die|Gott so|herr- lich|auf- ge- *|stellt! Ver-|kün- digt|Weis- heit und|
!<(! E4 E2 E2!<)! | E4 E2!f!!<(! E2!<)! | =E4!f! G4 | _A4 z2!ff! F2 | !>!B4 !>!c4 | %16
w: prei- sen die|Mee- re; ver-|nimm, o|Mensch, ihr|gött- lich|
w: Ord- nung und|Stä- ke, dir|nicht den|Herrn, den|Herrn der|
 !fermata!F6 z2 | z4 z4 | z4 z2"^Wer\nKannst" _A2 |"^trägt\ndu" _d6"^der\nder" d2 | %20
w: Wort!||||
w: Welt?||||
"^Him-\nWe-" _d2"^mel\nsen" d"^un-\nun-" d"^zähl-\nzähl-" d2"^ba-\nba-" c"^re\nre" B | %21
w: |
w: |
"^Ster-\nHee-" B2"^ne?\nre."!mf! =A2 z2 z2 | z4 z2"^Wer\nden" F2 | %23
w: ||
w: ||
"^führt\nklein         -"!<(! B6"^die\nsten" B2!<)! | %24
w: |
w: |
"^Sonn'\nStaub" B3"^aus\nfühl-" B"^ih-\nlos" A3"^rem\nbe-" B | %25
w: |
w: |
"^Zelt?\nschaun?" !fermata!c6!mf! z2 | z4 z2!mf! F2 | B4 F4 | D4 B,2 d2 |!<(! d4 c2 B2!<)! | %30
w: |||||
w: |||||
 !fermata!B4 !fermata!A2!f! F2 | e4 c4 | A6 F2 | B4 c4 | d6 d2 |!mf!!<(! d6 d2!<)! | e6 c2 | %37
w: |||||||
w: |||||||
 f4 A4 |!ff! !fermata!B6 z2 |] %39
w: ||
w: ||
V:2
 F2 | B4 F4 | D4 B,2 F2 | F4 E2 D2 | D4 C2 F2 | E4 C4 | A,4 F4 | =E4 _E4 | D6 D2 | A,6 A,2 | %10
w: ||||||||||
w: ||||||||||
 B,4 B,2 B,2 | B,4 B,2 _D2 | _D4 C2 C2 | C4 C4 | C4 z2 F2 | B,4 C4 | F6 F2 | F4 F4 | F4 F2 F2 | %19
w: ||||||* Wer|trägt der|Him- mel un-|
w: ||||||* Kannst|Du der|We- sen un-|
 F4 F2 F2 | F4 F2 F2 | E4 E2 E2 | E4 E2 E2 | _D2 D2 D2 D2 | _D4 (C3 D) | C6 F2 | F6 F2 | B4 F4 | %28
w: zähl- ba- re|Ster- ne, un-|zähl- ba- re|Ster- ne? Wer|führt die Sonn' aus|ih- rem *|Zelt? Sie|kommt, sie|kommt und|
w: zähl- ba- re|Hee- re, un-|zähl- ba- re|Hee- re, den|klein- sten Staub fühl-|los be- *|schaun? Durch|wen, durch|wen ist|
 D4 B,2 F2 | F4 E2 D2 | D4 C2 F2 | E4 C4 | A,6 F2 | D4 F4 | F6 F2 | G6 G2 | G6 G2 | B4 E4 | %38
w: leuch- tet und|lacht uns von|fer- ne, und|läuft den|Weg gleich|als ein|Held, und|läuft den|Weg gleich|als ein|
w: al- les? O|gib ihm die|Eh- re! "Mir",|ruft der|Herr, "sollst|du ver-|traun!" "Mir",|ruft der|Herr, "sollst|du ver-|
 D6 z2 |] %39
w: Held.|
w: traun!"|
V:3
 x2 | x8 | x8 | x8 | x8 | x8 | x8 | x8 | x8 | x8 | x8 | x8 | x8 | x8 | x8 | x8 | x8 | x8 | x8 | %19
 x8 | x8 | x8 | x8 | x8 | B,4 C3 (B, | A,6) z2 | x8 | x8 | x8 | x8 | x8 | x8 | x8 | x8 | x8 | x8 | %36
 x8 | F4 C4 | B,6 z2 |] %39
V:4
!f! F,2 | B,4 F,4 | D,4 B,,2 B,2 | B,4 F,2 F,2 | F,4 F,2!f! F,2 | E,4 C4 | A,4 F,4 | B,4 (A,3 C) | %8
 B,6!p! D,2 | D,6 D,2 | D,4 D,2 G,2 | E,4!<(! E,2 E,2!<)! | E,4!f! E,2!<(! !>!_A,2!<)! | %13
 B,4!f! B,4 | _A,4 z2!ff! F,2 | B,4 C4 | F,6 _A,2 | _A,4 A,4 | _A,4 A,2 A,2 | _A,4 A,2 A,2 | %20
 _A,4 A,2 B,2 | C4!mf! F,2 F,2 | F,4 F,2 F,2 |!<(! F,2 F,2 F,2 F,2!<)! | =E,4 E,4 | F,6!mf! F,2 | %26
!<(! F,6!f! F,2!<)! | B,4 F,4 | D,4 B,,2 B,2 |!<(! B,4 F,2 F,2!<)! | F,4 F,2!f! F,2 | E,4 C4 | %32
 A,6 F,2 | B,4 A,4 | B,6 B,2 |!mf!!<(! =B,6 B,2!<)! | C6 C2 | D4!ff! F,4 | F,6 z2 |] %39
V:5
 F,2 | B,4 F,4 | D,4 B,,2 B,,2 | B,,4 A,,2 B,,2 | !fermata!F,4 !fermata!F,,2 F,2 | E,4 C,4 | %6
 A,,4 F,,4 | _G,,4 F,,4 | !fermata!B,,6 D,2 | ^F,,6 F,,2 | G,,4 G,,2 !>!G,,2 | G,,4 G,,2 G,,2 | %12
 _A,,4 A,,2 _A,2 | G,4 =E,4 | F,4 z2 F,2 | !>!B,,4 !>!C,4 | !fermata!F,,6 _D,2 | _D,4 D,4 | %18
 _D,4 D,2 D,2 | _D,4 D,2 D,2 | _D,4 D,2 D,2 | C,4 C,2 C,2 | C,4 C,2 C,2 | B,,2 B,,2 B,,2 B,,2 | %24
 _G,,4 G,,4 | !fermata!F,,6 z2 | z4 z2 F,2 | B,4 F,4 | D,4 B,,2 B,,2 | B,,4 A,,2 B,,2 | %30
 !fermata!F,4 !fermata!F,,2 F,2 | E,4 C,4 | A,,6 F,2 | G,4 F,4 | B,,6 B,2 | G,6 G,2 | C,6 E,2 | %37
 F,4 F,,4 | !fermata!B,,6 z2 |] %39

